vendor/shopware/storefront/Resources/app/storefront/dist/assets/icon/default/plus-wide.svg

<svg xmlns="http://www.w3.org/2000/svg" width="24" height="24" viewBox="0 0 24 24">
  <path fill="#758CA3" fill-rule="evenodd" d="M10,10 L3,10 C2.44771525,10 2,10.4477153 2,11 L2,13 C2,13.5522847 2.44771525,14 3,14 L10,14 L10,21 C10,21.5522847 10.4477153,22 11,22 L13,22 C13.5522847,22 14,21.5522847 14,21 L14,14 L21,14 C21.5522847,14 22,13.5522847 22,13 L22,11 C22,10.4477153 21.5522847,10 21,10 L14,10 L14,3 C14,2.44771525 13.5522847,2 13,2 L11,2 C10.4477153,2 10,2.44771525 10,3 L10,10 Z M8,8 L8,3 C8,1.34314575 9.34314575,-9.90968917e-15 11,-1.02140518e-14 L13,-1.15388656e-14 C14.6568542,-1.18506821e-14 16,1.34314575 16,3 L16,8 L21,8 C22.6568542,8 24,9.34314575 24,11 L24,13 C24,14.6568542 22.6568542,16 21,16 L16,16 L16,21 C16,22.6568542 14.6568542,24 13,24 L11,24 C9.34314575,24 8,22.6568542 8,21 L8,16 L3,16 C1.34314575,16 6.46995335e-16,14.6568542 4.4408921e-16,13 L0,11 C-6.46995335e-16,9.34314575 1.34314575,8 3,8 L8,8 Z"/>
</svg>

<svg xmlns="http://www.w3.org/2000/svg" width="24" height="24" viewBox="0 0 24 24"><path fill="#758CA3" fill-rule="evenodd" d="M10 10H3c-.5523 0-1 .4477-1 1v2c0 .5523.4477 1 1 1h7v7c0 .5523.4477 1 1 1h2c.5523 0 1-.4477 1-1v-7h7c.5523 0 1-.4477 1-1v-2c0-.5523-.4477-1-1-1h-7V3c0-.5523-.4477-1-1-1h-2c-.5523 0-1 .4477-1 1v7zM8 8V3c0-1.6569 1.3431-3 3-3h2c1.6569 0 3 1.3431 3 3v5h5c1.6569 0 3 1.3431 3 3v2c0 1.6569-1.3431 3-3 3h-5v5c0 1.6569-1.3431 3-3 3h-2c-1.6569 0-3-1.3431-3-3v-5H3c-1.6569 0-3-1.3431-3-3v-2c0-1.6569 1.3431-3 3-3h5z"/></svg>
